public/library/hyperliquid-text-dark.svg

<svg width="370" height="57" viewBox="0 0 370 57" fill="none" xmlns="http://www.w3.org/2000/svg">
<path d="M65.3 23.9987C65.3 45.4987 52.1 52.3987 45.1 46.2987C39.4 41.2987 37.7 30.6987 29.1 29.5987C18.2 28.2987 17.2 42.7987 10 42.7987C1.6 42.7987 0 30.6987 0 24.3987C0 17.9987 1.8 9.29866 8.9 9.29866C17.2 9.29866 17.7 21.7987 28.1 21.0987C38.4 20.3987 38.6 7.39866 45.4 1.89866C51.3 -3.00134 65.3 2.19866 65.3 23.9987Z" fill="#97FCE4"/>
<path d="M96.2998 43.9986V2.29865H100.3V20.3987H124.7V2.29865H128.6V44.0986H124.7V23.7986H100.3V44.0986H96.2998V43.9986Z" fill="white"/>
<path d="M139 56.6987L144.4 43.2987L132.7 15.1987H136.8L144.5 34.1987C144.9 35.3987 145.6 36.8987 146.4 38.7987C146.5 38.4987 146.6 38.1987 146.8 37.8987C146.9 37.5987 147 37.2987 147.2 36.9987C147.4 36.4987 147.7 35.9987 147.8 35.4987C147.9 34.9987 148.1 34.5987 148.3 34.0987L155.5 15.0987H159.4L143 56.5987H139V56.6987Z" fill="white"/>
<path d="M163.2 56.6987V15.1987H166.9V16.9987C166.9 17.3987 166.9 17.6987 166.9 18.0987C166.9 18.4987 166.9 18.8987 166.9 19.2987C166.9 19.4987 166.9 19.6987 166.9 19.8987C166.9 20.0987 166.9 20.2987 166.9 20.4987C167.9 18.6987 169.2 17.1987 171.1 16.0987C172.9 14.9987 174.9 14.3987 177.2 14.3987C179.9 14.3987 182.2 15.0987 184.2 16.3987C186.2 17.6987 187.7 19.4987 188.8 21.7987C189.9 24.0987 190.4 26.6987 190.4 29.5987C190.4 32.5987 189.9 35.1987 188.8 37.4987C187.7 39.7987 186.1 41.5987 184.2 42.9987C182.2 44.2987 179.9 44.9987 177.4 44.9987C175.2 44.9987 173.3 44.4987 171.4 43.3987C169.6 42.3987 168.2 40.7987 167.1 38.7987C167.1 39.0987 167.1 39.3987 167.1 39.7987C167.1 40.0987 167.1 40.3987 167.1 40.6987C167.1 40.8987 167.1 41.1987 167.1 41.3987C167.1 41.5987 167.1 41.7987 167.1 41.9987V56.7987H163.2V56.6987ZM176.6 41.8987C178.6 41.8987 180.3 41.3987 181.8 40.2987C183.3 39.1987 184.4 37.7987 185.3 35.8987C186.1 33.9987 186.5 31.8987 186.5 29.4987C186.5 27.0987 186.1 24.9987 185.3 23.1987C184.5 21.3987 183.3 19.8987 181.8 18.8987C180.3 17.8987 178.6 17.3987 176.6 17.3987C174.7 17.3987 173 17.8987 171.5 18.8987C170 19.8987 168.8 21.2987 168 23.1987C167.2 24.9987 166.7 27.1987 166.7 29.5987C166.7 31.9987 167.1 34.1987 168 35.9987C168.8 37.8987 170 39.2987 171.5 40.3987C173 41.4987 174.7 41.8987 176.6 41.8987Z" fill="white"/>
<path d="M208.1 44.8987C205.4 44.8987 203 44.2986 200.9 43.0986C198.8 41.8986 197.2 40.0986 196.1 37.7986C195 35.4986 194.4 32.6987 194.4 29.4986C194.4 26.5986 195 23.9986 196.2 21.6986C197.4 19.3986 199 17.5986 201 16.2986C203 14.9986 205.3 14.2986 207.8 14.2986C210.5 14.2986 212.8 14.8986 214.8 16.1986C216.7 17.3986 218.2 19.1987 219.2 21.3987C220.2 23.6987 220.7 26.2986 220.7 29.2986V30.0986H198.1C198.1 32.5986 198.5 34.6987 199.4 36.4986C200.3 38.2986 201.4 39.5986 202.9 40.4986C204.4 41.3986 206.2 41.8987 208.1 41.8987C210.4 41.8987 212.3 41.3986 213.9 40.2986C215.4 39.1986 216.4 37.4986 216.7 35.2986H220.4C220.1 37.0986 219.5 38.7986 218.4 40.1986C217.4 41.5986 216 42.7986 214.2 43.5986C212.6 44.3986 210.5 44.8987 208.1 44.8987ZM216.7 27.2986C216.7 24.2986 215.9 21.8986 214.3 20.0986C212.7 18.2986 210.6 17.3987 207.8 17.3987C205.1 17.3987 202.9 18.2986 201.2 20.1986C199.5 22.0986 198.5 24.3986 198.2 27.2986H216.7Z" fill="white"/>
<path d="M226.4 43.9987V15.1987H230.1V17.0987C230.1 17.3987 230.1 17.6987 230.1 17.9987C230.1 18.2987 230.1 18.5987 230.1 18.8987C230.1 19.1987 230.1 19.5987 230.1 19.8987C230.1 20.1987 230.1 20.5987 230.1 20.9987C230.9 19.0987 232.1 17.4987 233.9 16.2987C235.6 15.0987 237.6 14.3987 239.9 14.3987C240.5 14.3987 241 14.3987 241.5 14.4987V18.0987C240.8 17.9987 240.2 17.9987 239.7 17.9987C237.8 17.9987 236.1 18.3987 234.7 19.2987C233.3 20.1987 232.2 21.3987 231.4 22.9987C230.6 24.5987 230.2 26.4987 230.2 28.5987V44.0987H226.4V43.9987Z" fill="white"/>
<path d="M250.7 43.1987L250.5 43.9987H238.8L239 43.1987C242.2 42.8987 243.6 41.8987 244.1 39.4987L250.7 8.39867C251.4 5.19867 250.4 4.69867 247 5.39867L247.2 4.59867L254.4 2.19867H255.2L247.3 39.5987C246.7 41.8987 247.6 42.8987 250.7 43.1987Z" fill="white"/>
<path d="M264 43.1986L263.8 43.9986H252L252.2 43.1986C255.4 42.8986 256.8 41.8987 257.3 39.4986L261.3 20.4986C262 17.2986 261.1 16.7986 257.6 17.4986L257.8 16.6986L265 14.2986H265.8L260.5 39.4986C260 41.8987 260.9 42.8986 264 43.1986ZM266 3.79865C267.6 3.79865 268.6 4.99865 268.4 6.59865C268.2 8.19865 266.8 9.29865 265.3 9.29865C263.7 9.29865 262.6 8.09865 262.8 6.59865C262.9 4.99865 264.3 3.79865 266 3.79865Z" fill="white"/>
<path d="M284.2 52.3987L287.4 37.4986C285.4 41.8986 281.1 44.8987 276.7 44.8987C269.5 44.8987 266.1 38.0986 268.3 27.9986C269.8 20.5986 276.4 14.2986 284.2 14.2986C287.8 14.2986 290.8 15.8986 292 18.2986L294.7 14.2986H295.5L287.3 52.3987C286.7 54.9986 288.8 55.4986 290.9 55.8987L290.7 56.6987H277.2L277.4 55.8987C281.4 55.4986 283.7 54.9986 284.2 52.3987ZM278.7 42.7986C282.4 42.7986 286.1 39.5986 287.9 35.7986L290.3 24.3987C290.9 20.2987 289 15.9986 283.3 15.9986C277.9 15.9986 273.3 20.8986 271.8 27.9986C270 36.6987 272.6 42.7986 278.7 42.7986Z" fill="white"/>
<path d="M335.8 43.1986L335.6 43.9986H323.8L324 43.1986C327.2 42.8986 328.6 41.8987 329.1 39.4986L333.1 20.4986C333.8 17.2986 332.9 16.7986 329.4 17.4986L329.6 16.6986L336.8 14.2986H337.6L332.3 39.4986C331.8 41.8987 332.7 42.8986 335.8 43.1986ZM337.8 3.79865C339.4 3.79865 340.4 4.99865 340.2 6.59865C340 8.19865 338.6 9.29865 337.1 9.29865C335.5 9.29865 334.4 8.09865 334.6 6.59865C334.8 4.99865 336.2 3.79865 337.8 3.79865Z" fill="white"/>
<path d="M319.1 39.3987L321.8 26.6986L324.4 14.2986H323.6L316.4 16.6986L316.2 17.4986C319.6 16.7986 320.5 17.2986 319.9 20.4986L316.5 36.6986C312.7 40.1986 310.1 42.2986 306.8 42.2986C302.8 42.2986 300.7 39.5987 301.7 34.8987L306.1 14.2986H305.3L298.1 16.6986L297.9 17.4986C301.3 16.7986 302.3 17.2986 301.6 20.4986L298.5 35.2986C297.3 40.7986 300.1 44.7986 305.2 44.7986C308.6 44.7986 311.6 42.8987 316.3 37.8987L316.1 38.8987L315.1 43.7986H322.6L322.8 42.8987C319.5 42.7987 318.6 41.8987 319.1 39.3987Z" fill="white"/>
<path d="M367.2 13.1987L369.5 2.09866H368.7L361.5 4.49866L361.3 5.29866C364.7 4.59866 365.6 5.09866 365 8.29866L363 17.7987C361.7 15.6987 358.9 14.2987 355.7 14.2987C347.8 14.2987 341.3 20.5987 339.6 28.4987C337.6 38.0987 340.9 44.8987 348.1 44.8987C352.6 44.8987 356.9 41.7987 358.9 37.3987L358.4 39.8987L357.5 43.9987L365 43.8987L365.2 43.0987C362.1 42.7987 361.2 41.7987 361.7 39.3987L367.2 13.1987ZM359.2 35.6987C357.5 39.5987 353.7 42.7987 350 42.7987C343.9 42.7987 341.3 36.6987 343 28.4987C344.6 20.7987 349.3 15.9987 354.7 15.9987C360.5 15.9987 362.4 20.5987 361.6 24.6987L361.3 25.9987L359.2 35.6987Z" fill="white"/>
</svg>

<svg xmlns="http://www.w3.org/2000/svg" width="370" height="57" fill="none" viewBox="0 0 370 57"><path fill="#97fce4" d="M65.3 23.999c0 21.5-13.2 28.4-20.2 22.3-5.7-5-7.4-15.6-16-16.7-10.9-1.3-11.9 13.2-19.1 13.2-8.4 0-10-12.1-10-18.4 0-6.4 1.8-15.1 8.9-15.1 8.3 0 8.8 12.5 19.2 11.8 10.3-.7 10.5-13.7 17.3-19.2 5.9-4.9 19.9.3 19.9 22.1"/><path fill="#fff" d="M96.3 43.999v-41.7h4v18.1h24.4v-18.1h3.9v41.8h-3.9v-20.3h-24.4v20.3h-4zM139 56.699l5.4-13.4-11.7-28.1h4.1l7.7 19c.4 1.2 1.1 2.7 1.9 4.6.1-.3.2-.6.4-.9.1-.3.2-.6.4-.9.2-.5.5-1 .6-1.5s.3-.9.5-1.4l7.2-19h3.9l-16.4 41.5h-4zM163.2 56.699v-41.5h3.7v5.3c1-1.8 2.3-3.3 4.2-4.4 1.8-1.1 3.8-1.7 6.1-1.7 2.7 0 5 .7 7 2s3.5 3.1 4.6 5.4 1.6 4.9 1.6 7.8c0 3-.5 5.6-1.6 7.9s-2.7 4.1-4.6 5.5c-2 1.3-4.3 2-6.8 2-2.2 0-4.1-.5-6-1.6-1.8-1-3.2-2.6-4.3-4.6v18h-3.9zm13.4-14.8c2 0 3.7-.5 5.2-1.6s2.6-2.5 3.5-4.4c.8-1.9 1.2-4 1.2-6.4q0-3.6-1.2-6.3c-.8-1.8-2-3.3-3.5-4.3s-3.2-1.5-5.2-1.5q-2.85 0-5.1 1.5c-1.5 1-2.7 2.4-3.5 4.3-.8 1.8-1.3 4-1.3 6.4s.4 4.6 1.3 6.4c.8 1.9 2 3.3 3.5 4.4s3.2 1.5 5.1 1.5M208.1 44.899q-4.05 0-7.2-1.8c-2.1-1.2-3.7-3-4.8-5.3s-1.7-5.1-1.7-8.3q0-4.35 1.8-7.8t4.8-5.4c2-1.3 4.3-2 6.8-2 2.7 0 5 .6 7 1.9 1.9 1.2 3.4 3 4.4 5.2 1 2.3 1.5 4.9 1.5 7.9v.8h-22.6c0 2.5.4 4.6 1.3 6.4s2 3.1 3.5 4 3.3 1.4 5.2 1.4c2.3 0 4.2-.5 5.8-1.6 1.5-1.1 2.5-2.8 2.8-5h3.7c-.3 1.8-.9 3.5-2 4.9-1 1.4-2.4 2.6-4.2 3.4-1.6.8-3.7 1.3-6.1 1.3m8.6-17.6q0-4.5-2.4-7.2c-1.6-1.8-3.7-2.7-6.5-2.7-2.7 0-4.9.9-6.6 2.8s-2.7 4.2-3 7.1zM226.4 43.999v-28.8h3.7v5.8c.8-1.9 2-3.5 3.8-4.7 1.7-1.2 3.7-1.9 6-1.9.6 0 1.1 0 1.6.1v3.6c-.7-.1-1.3-.1-1.8-.1-1.9 0-3.6.4-5 1.3s-2.5 2.1-3.3 3.7-1.2 3.5-1.2 5.6v15.5h-3.8zM250.7 43.199l-.2.8h-11.7l.2-.8c3.2-.3 4.6-1.3 5.1-3.7l6.6-31.1c.7-3.2-.3-3.7-3.7-3l.2-.8 7.2-2.4h.8l-7.9 37.4c-.6 2.3.3 3.3 3.4 3.6M264 43.199l-.2.8H252l.2-.8c3.2-.3 4.6-1.3 5.1-3.7l4-19c.7-3.2-.2-3.7-3.7-3l.2-.8 7.2-2.4h.8l-5.3 25.2c-.5 2.4.4 3.4 3.5 3.7m2-39.4c1.6 0 2.6 1.2 2.4 2.8s-1.6 2.7-3.1 2.7c-1.6 0-2.7-1.2-2.5-2.7.1-1.6 1.5-2.8 3.2-2.8M284.2 52.399l3.2-14.9c-2 4.4-6.3 7.4-10.7 7.4-7.2 0-10.6-6.8-8.4-16.9 1.5-7.4 8.1-13.7 15.9-13.7 3.6 0 6.6 1.6 7.8 4l2.7-4h.8l-8.2 38.1c-.6 2.6 1.5 3.1 3.6 3.5l-.2.8h-13.5l.2-.8c4-.4 6.3-.9 6.8-3.5m-5.5-9.6c3.7 0 7.4-3.2 9.2-7l2.4-11.4c.6-4.1-1.3-8.4-7-8.4-5.4 0-10 4.9-11.5 12-1.8 8.7.8 14.8 6.9 14.8M335.8 43.199l-.2.8h-11.8l.2-.8c3.2-.3 4.6-1.3 5.1-3.7l4-19c.7-3.2-.2-3.7-3.7-3l.2-.8 7.2-2.4h.8l-5.3 25.2c-.5 2.4.4 3.4 3.5 3.7m2-39.4c1.6 0 2.6 1.2 2.4 2.8s-1.6 2.7-3.1 2.7c-1.6 0-2.7-1.2-2.5-2.7.2-1.6 1.6-2.8 3.2-2.8M319.1 39.399l2.7-12.7 2.6-12.4h-.8l-7.2 2.4-.2.8c3.4-.7 4.3-.2 3.7 3l-3.4 16.2c-3.8 3.5-6.4 5.6-9.7 5.6-4 0-6.1-2.7-5.1-7.4l4.4-20.6h-.8l-7.2 2.4-.2.8c3.4-.7 4.4-.2 3.7 3l-3.1 14.8c-1.2 5.5 1.6 9.5 6.7 9.5 3.4 0 6.4-1.9 11.1-6.9l-.2 1-1 4.9h7.5l.2-.9c-3.3-.1-4.2-1-3.7-3.5M367.2 13.199l2.3-11.1h-.8l-7.2 2.4-.2.8c3.4-.7 4.3-.2 3.7 3l-2 9.5c-1.3-2.1-4.1-3.5-7.3-3.5-7.9 0-14.4 6.3-16.1 14.2-2 9.6 1.3 16.4 8.5 16.4 4.5 0 8.8-3.1 10.8-7.5l-.5 2.5-.9 4.1 7.5-.1.2-.8c-3.1-.3-4-1.3-3.5-3.7zm-8 22.5c-1.7 3.9-5.5 7.1-9.2 7.1-6.1 0-8.7-6.1-7-14.3 1.6-7.7 6.3-12.5 11.7-12.5 5.8 0 7.7 4.6 6.9 8.7l-.3 1.3z"/></svg>
